icons/duplicate-24.svg

<svg xmlns="http://www.w3.org/2000/svg" width="24" height="24" viewBox="0 0 24 24"><path d="M14.513 6a.75.75 0 01.75.75v2h1.987a.75.75 0 010 1.5h-1.987v2a.75.75 0 11-1.5 0v-2H11.75a.75.75 0 010-1.5h2.013v-2a.75.75 0 01.75-.75z"/><path d="M7.024 3.75c0-.966.784-1.75 1.75-1.75H20.25c.966 0 1.75.784 1.75 1.75v11.498a1.75 1.75 0 01-1.75 1.75H8.774a1.75 1.75 0 01-1.75-1.75zm1.75-.25a.25.25 0 00-.25.25v11.498c0 .139.112.25.25.25H20.25a.25.25 0 00.25-.25V3.75a.25.25 0 00-.25-.25z"/><path d="M1.995 10.749a1.75 1.75 0 011.75-1.751H5.25a.75.75 0 110 1.5H3.745a.25.25 0 00-.25.25L3.5 20.25c0 .138.111.25.25.25h9.5a.25.25 0 00.25-.25v-1.51a.75.75 0 111.5 0v1.51A1.75 1.75 0 0113.25 22h-9.5A1.75 1.75 0 012 20.25l-.005-9.501z"/></svg>

<svg xmlns="http://www.w3.org/2000/svg" width="24" height="24" viewBox="0 0 24 24">
  <defs/>
  <path d="M14.513,6 A0.75 0.75 0 0 1 15.263,6.75 L15.263,8.75 L17.25,8.75 A0.75 0.75 0 0 1 17.25,10.25 L15.263,10.25 L15.263,12.25 A0.75 0.75 0 1 1 13.763,12.25 L13.763,10.25 L11.75,10.25 A0.75 0.75 0 0 1 11.75,8.75 L13.763,8.75 L13.763,6.75 A0.75 0.75 0 0 1 14.513,6 Z"/>
  <path d="M7.024,3.75 C7.024,2.784 7.808,2 8.774,2 L20.25,2 C21.216,2 22,2.784 22,3.75 L22,15.248 C22,16.214 21.216,16.998 20.25,16.998 L8.774,16.998 C7.808,16.998 7.024,16.214 7.024,15.248 Z M8.774,3.5 C8.636,3.5 8.524,3.612 8.524,3.75 L8.524,15.248 C8.524,15.387 8.636,15.498 8.774,15.498 L20.25,15.498 C20.388,15.498 20.5,15.386 20.5,15.248 L20.5,3.75 C20.5,3.612 20.388,3.5 20.25,3.5 Z"/>
  <path d="M1.995,10.749 A1.75 1.75 0 0 1 3.745,8.998 L5.25,8.998 A0.75 0.75 0 1 1 5.25,10.498 L3.745,10.498 A0.25 0.25 0 0 0 3.495,10.748 L3.5,20.25 C3.5,20.388 3.611,20.5 3.75,20.5 L13.25,20.5 A0.25 0.25 0 0 0 13.5,20.25 L13.5,18.74 A0.75 0.75 0 1 1 15,18.74 L15,20.25 A1.75 1.75 0 0 1 13.25,22 L3.75,22 A1.75 1.75 0 0 1 2,20.25 L1.995,10.749 Z"/>
</svg>
